X:1
T:With one consent let all the earth
T:Thomas Jarman
T:Text: Tate/Brady, on Ps. 100.
T:This edition by Edmund Gooch released into the public domain, August 2014.
T:With one consent let all the earth
T:NEW HUNDREDTH. L.M. Psalm 100. New version.
C:Thomas Jarman
Z:Text: Tate/Brady, on Ps. 100.
%%score [ 1 2 3 4 ]
L:1/8
M:2/2
K:E
V:1 treble nm="Soprano" snm="S."
V:2 treble nm="Alto" snm="A."
V:3 treble-8 transpose=-12 nm="Tenor" snm="T."
V:4 bass nm="Bass" snm="B."
V:1
 E4 | G4 B4 | e4 (c2 A2) | G4 F4 | E4 e4 | c4 (f2 d2) | B4 (3(c2 d2 e2) | d4 c4 | B4!p! B4 | %9
w: O|en- ter|then his _|tem- ple|gate, Thence|to his _|courts de- * *|vout- ly|press, And|
w: With|one con-|sent let _|all the|earth To|God their _|cheer- ful _ _|voi- ces|raise; Glad|
w: Con-|vinc’d that|he is _|God a-|lone, From|whom both _|we and _ _|all pro-|ceed; We,|
 c4 (B3 A) | G4 B4 | c4 d4 | e4!f! e4 | c4 (f2 d2) | B4 (3(c2 d2 e2) |"^Slow" G4 F4 | E4 |] %17
w: still your _|grate- ful|hymns re-|peat, And|still his _|name with _ _|prai- ses|bless.|
w: ho- mage _|pay with|aw- ful|mirth, And|sing be- *|fore him _ _|songs of|praise.|
w: whom he _|choo- ses|for his|own, The|flock that _|he vouch- * *|safes to|feed.|
V:2
 E4 | E4 G4 | G4 E4 | E4 D4 | E4 G4 | [EF]4 [DF]4 | E4 G4 | F4 E4 | D4"^["!p!"^]" E4 | A4 (G3 F) | %10
w: O|en- ter|then his|tem- ple|gate, Thence|to his|courts de-|vout- ly|press, And|still your _|
w: With|one con-|sent let|all the|earth To|God their|cheer- ful|voi- ces|raise; Glad|ho- mage _|
w: Con-|vinc’d that|he is|God a-|lone, From|whom both|we and|all pro-|ceed; We,|whom he _|
 E4 G4 | [EA]4 [FA]4 | G4"^["!f!"^]" G4 | [EA]4 [FA]4 | G4 E4 | E4 D4 | E4 |] %17
w: grate- ful|hymns re-|peat, And|still his|name with|prai- ses|bless.|
w: pay with|aw- ful|mirth, And|sing be-|fore him|songs of|praise.|
w: choo- ses|for his|own, The|flock that|he vouch-|safes to|feed.|
V:3
 G4 | B4 [Be]4 | B4 c4 | B4 A4 | G4 B4 | A4 B4 | B4 B4 | B4 ^A4 | B4"^["!p!"^]" G4 | e4 e4 | %10
w: O|en- ter|then his|tem- ple|gate, Thence|to his|courts de-|vout- ly|press, And|still your|
w: With|one con-|sent let|all the|earth To|God their|cheer- ful|voi- ces|raise; Glad|ho- mage|
w: Con-|vinc’d that|he is|God a-|lone, From|whom both|we and|all pro-|ceed; We,|whom he|
 B4 e4 | e4 B4 | B4"^["!f!"^]" B4 | c4 B4 | (B2 e2) c4 | B4 A4 | G4 |] %17
w: grate- ful|hymns re-|peat, And|still his|name _ with|prai- ses|bless.|
w: pay with|aw- ful|mirth, And|sing be-|fore _ him|songs of|praise.|
w: choo- ses|for his|own, The|flock that|he _ vouch-|safes to|feed.|
V:4
 E,4 | E,4 E,4 |"^6" G,4 A,4 |"^64" B,4"^75" B,,4 | E,4 E,4 |"^65" A,4"^64" F,4 | %6
w: O|en- ter|then his|tem- ple|gate, Thence|to his|
w: With|one con-|sent let|all the|earth To|God their|
w: Con-|vinc’d that|he is|God a-|lone, From|whom both|
"^6" G,4"^65" E,4 |"^64" F,4"^7#" F,4 | %8
w: courts de-|vout- ly|
w: cheer- ful|voi- ces|
w: we and|all pro-|
"^Notes: The original order of parts is Tenor - Alto - Air - [Bass]: the alto part is printed in the treble clef an octave above sounding pitch in thesource. Only the first verse of the text is given in the source: the three subsequent verses have been added editorially. The lower of the two altonotes on beat 1 of bar 11, given here as an E, is printed in the source as the F# a tone higher, and has been emended to conform to theharmony indicated by the bass figuring." B,,4"^["!p!"^]" E,4 | %9
w: press, And|
w: raise; Glad|
w: ceed; We,|
"^64" E,4"^53" E,4 | E,4 E,4 | A,,4"^7" B,,4 | E,4"^["!f!"^]" E,4 | A,4"^643" F,4 | E,4 A,,4 | %15
w: still your|grate- ful|hymns re-|peat, And|still his|name with|
w: ho- mage|pay with|aw- ful|mirth, And|sing be-|fore him|
w: whom he|choo- ses|for his|own, The|flock that|he vouch-|
"^64" B,,4"^7" B,,4 | E,4 |] %17
w: prai- ses|bless.|
w: songs of|praise.|
w: safes to|feed.|

